X:1950
L:1/8
M:4/4
K:G
"^hornpipe" d2 | G2 GA Bd d2 | cABG AG (3FED | G2 GA Bd d2 | (3efg fa g2 b2 | G2 GA Bd d2 | 
 cABG AG (3FED | G2 GA Bd d2 | (3efg fa g2 || d2 | gaba gfed | efge dcBA | gaba gfed | 
 (3efg fa g3 d | gaba gfed | efge dcBA | (3GFG GA Bd d2 | (3efg fa g2 ||

